.icons/oomox-ad/16x16/apps/kvantum.svg

<svg xmlns="http://www.w3.org/2000/svg" width="16" height="16" version="1">
 <rect style="fill:#4f4f4f" width="15.636" height="13.682" x=".18" y="1.16" rx=".711" ry=".72"/>
 <path style="fill:#e53626" d="m 0.7272728,1.0000001 c -0.16891694,0 -0.32212054,0.059695 -0.4453125,0.1568667 L 0.15482961,1.2856703 C 0.05892001,1.4104832 8e-8,1.5657026 8e-8,1.7368421 V 7.3142476 L 6.2329546,1.0000001 Z"/>
 <path style="fill:#ffae1a" d="M 6.2329546,1.0000001 8e-8,7.3142476 V 13.185958 L 12.028409,1.0000001 Z"/>
 <path style="fill:#2dac43" d="M 12.028409,1.0000001 8e-8,13.185958 v 1.0772 C 8e-8,14.671368 0.32436371,15 0.7272728,15 H 4.0049717 L 16,2.8478619 V 1.7368421 c 0,-0.4082105 -0.324364,-0.736842 -0.727273,-0.736842 z"/>
 <path style="fill:#2f66dd" d="M 16,2.8478619 4.0049717,15 H 9.8004262 L 16,8.7195724 Z"/>
 <path style="fill:#82248f" d="M 16,8.7195724 9.8004262,15 H 15.272727 C 15.675636,15 16,14.671368 16,14.263158 Z"/>
 <path style="fill:#ffffff" d="m 2.999962,4.000001 7.6e-5,0.965627 0.965768,0.056128 0.11728,0.1683624 L 2.917469,10.815001 2.738097,10.990425 2.000315,11.046905 2,11.99995 4.999793,11.999999 5.000207,11.047 4.511497,10.99778 4.387316,10.815365 4.863039,9 h 0.731265 l 1.048639,1.692903 c 0.428591,0.89522 0.729254,1.279013 1.655745,1.290888 0.266397,0.0035 0.373566,0.02337 1.09224,0 2.478764,-2.104459 3.343701,-3.586047 3.543606,-4.311296 0.121072,-0.439258 -0.07115,-0.7086604 -0.483034,-0.7086604 -0.20092,0 -0.430945,0.086044 -0.689763,0.2597074 l -0.186269,1.68572 c -0.507307,0.674195 -0.783287,1.108636 -1.6072675,1.874799 L 10.887855,8.008822 C 11.000954,7.416277 11.038241,7.100126 10.660148,6.9775168 L 8.770226,7.356422 8.680656,7.679075 9.460116,7.805434 C 9.514306,8.009715 9.279382,8.631653 9.161044,9.316165 l -0.379439,1.825657 c -0.006,0.02187 -0.0097,0.04585 -0.0138,0.07016 C 8.52177,11.077552 8.366674,10.838177 8.188294,10.475393 l -1.48326,-2.517009 2.711249,-2.8803682 1.083781,-0.091194 -1.13e-4,-0.9867071 -3.500004,2.44e-5 1.2e-4,0.9867514 1.160596,0.056053 0.06899,0.1894281 L 5.36893,8 H 5.023983 L 5.552879,5.1903011 5.704656,5.021939 6.500035,4.965834 l -7e-5,-0.9657162 z"/>
</svg>

<svg xmlns="http://www.w3.org/2000/svg" width="16" height="16" version="1">
 <path style="opacity:0.2;fill-rule:evenodd" d="m 0.8,1.9999999 c -0.4432,0 -0.8,0.362375 -0.8,0.8125 L 0,13.711425 a 11.2,11.375 0 0 0 1.2,0.06982 11.2,11.375 0 0 0 11.2,-11.3750001 11.2,11.375 0 0 0 -0.01406,-0.40625 l -11.585938,0 z"/>
 <path style="fill:#6b328f" transform="matrix(0,-1,-1,0,0,0)" d="m -14.1875,-16 11.375,0 C -2.362375,-16 -2,-15.6432 -2,-15.2 l 0,1.065959 -1.76952,11.896306 c -0.065206,0.4383769 0.1004814,1.33667491 -0.348001,1.37509399 L -14.1875,0 C -14.635982,0.03841908 -15,-0.35680001 -15,-0.80000001 L -15,-15.2 c 0,-0.4432 0.362375,-0.8 0.8125,-0.8 z"/>
 <path style="fill:#2b70c3;fill-rule:evenodd" d="M 1.1760242,2.4644992 C 0.74421446,2.564332 0.54461667,2.8029148 0.3539052,3.2106423 L 1.2e-6,3.9672639 l 0,10.2202361 c 0,0.450125 0.3568,0.8125 0.8,0.8125 l 6.8835936,0 C 12.301142,12.549514 14.996984,7.6975755 15.00003,2.4062502 14.99723,2.2707724 14.99253,2.1353419 14.98597,2.0000002 l -11.800834,0 z"/>
 <path style="fill:#49bf5d;fill-rule:evenodd" d="M 1.0433102,2.4202612 C 0.6291906,2.5781574 0.49526632,2.7351424 0.2654292,3.1221663 L 1.2e-6,3.5691219 l 0,8.3464841 c 0.5283584,0.09425 1.0635653,0.143347 1.6,0.146789 C 6.9019347,12.062394 10.99953,8.1972764 10.99953,2.8125003 10.99763,2.541233 10.98461,2.2701638 10.96047,2.0000002 l -8.814927,0 z"/>
 <path style="fill:#ffb328;fill-rule:evenodd" d="M 1.3529762,2.9732362 C 0.92220863,3.0774741 0.83438364,3.2874169 0.70780921,3.7193793 L 1.2e-6,6.1349259 l 0,2.7625485 c 0.3958582,0.074351 0.79743537,0.1128523 1.2,0.1150512 3.7555363,0 6.8000001,-2.7920589 6.8,-6.6062754 -7.621e-4,-0.1355275 -0.00545,-0.2710028 -0.014064,-0.40625 l -2.6110201,0 z"/>
 <path style="fill:#e84e3f;fill-rule:evenodd" d="m 0.8000012,2.0000002 c -0.4432,-1e-7 -0.8,0.362375 -0.8,0.8125001 l 0,4.1752007 c 0.13297261,0.013416 0.266405,0.021622 0.4,0.024598 C 3.1160511,7.0113546 5.7740733,4.750316 5.983,2.000001 Z"/>
 <path style="fill:#ffffff" d="m 2.9999615,4.0000012 7.7e-5,0.965627 0.9657673,0.056128 L 4.0830856,5.1901186 2.9174691,10.815001 2.7380967,10.990425 2.0003149,11.046905 2,11.99995 4.9997927,11.999999 5.0002073,11.047 4.5114966,10.99778 4.3873158,10.815365 4.8630386,9 5.5943041,9 6.6429427,10.692903 c 0.4285913,0.89522 0.7292538,1.279013 1.655745,1.290888 0.2663974,0.0035 0.373566,0.02337 1.0922407,0 2.4787626,-2.1044592 3.3436996,-3.5860468 3.5436046,-4.3112954 0.121072,-0.4392585 -0.07115,-0.7086608 -0.483034,-0.7086608 -0.20092,0 -0.430945,0.086044 -0.689763,0.2597071 L 11.575467,8.9092624 C 11.06816,9.5834572 10.79218,10.017898 9.9682,10.784061 L 10.887854,8.008822 C 11.000953,7.4162775 11.03824,7.1001262 10.660147,6.977517 l -1.8899205,0.3789055 -0.089575,0.322653 0.7794596,0.1263584 c 0.05419,0.2042817 -0.180734,0.8262189 -0.2990718,1.5107312 l -0.379439,1.8256569 c -0.00597,0.02187 -0.00973,0.04585 -0.013802,0.07016 C 8.5217629,11.077552 8.3666669,10.838177 8.1882872,10.475393 L 6.7050266,7.9583844 9.4162764,5.078016 10.500056,4.9868219 10.499943,4.0001148 6.9999396,4.0001392 7.0000603,4.9868906 8.1606561,5.0429436 8.2296451,5.2323717 5.3689296,8 5.0239828,8 5.5528792,5.1903013 5.7046558,5.0219392 6.5000354,4.9658342 6.4999645,4.000118 Z"/>
</svg>
